X:1
T:[ID 10-58]
T:[ID 10-58]
T:Bezeichnung standardisiert: March March
T:Urheber unbekannt Datum in der hier transkribierten schriftlichen Quelle: 1799
C:Urheber unbekannt
C:Datum in der hier transkribierten schriftlichen Quelle: 1799
%%score 1 2
L:1/8
M:4/4
K:G
V:1 treble 
V:2 treble nm="Secondo"
V:1
 G2 | d2 d>d d>ed>c | B>de>f g2{ga} b2 | a>gf>e d>ed>c | B>ed>c B2 B2 | A>A d>d ^c>c e>e | %6
 f>aa>a a2 g2 | f2 e>d f>ed>^c | d6 :: AB | c2 cc cedc | BABc B2 Bc | d2 d2 gdcB | A4 z2 Bc | %14
 d>d B>d d>d e>d | c>c A>c c>c d>c | d>d B>d d>d e>d | c>c A>c c>c d>c |"^1)" x8 | Bdef gcBA | %20
 G6 :| %21
V:2
 !fermata!G2 | B2 B>B B>cB>A | G>Bc>A B2 g2 | f>ed>c B>cB>A | GcBA G2 G2 | F>F F>F E>E ^c>c | %6
 F>ff>f f2 e2 | A2 G>F A>GF>E | F6 :: FG | A2 AA AcBA | GFGA G2 GA | B2 B2 BBAG | F4 z2 GA | %14
 B>B G>B B>B cB | A>A F>A A>A B>A | B>B G>B B>B c>B | A>A F>A A>A B>A | B>B G>B B>B G>B | %19
 BBcA BAGF | B,6 :| %21

